build/img/svg/icon-mobile-phone.svg

<svg width="25" height="22" viewBox="0 0 25 22" fill="none" xmlns="http://www.w3.org/2000/svg">
<path d="M17.5816 21.8717C15.4953 21.8245 13.2041 20.9784 11.1064 19.6318C7.33777 17.2143 4.0888 14.2642 1.95696 10.2716C0.997258 8.47356 0.471884 6.53389 0.894838 4.48658C1.27417 2.68291 2.49182 1.41373 3.94276 0.384405C4.68245 -0.140644 5.71613 0.176644 6.12201 1.01332C6.81998 2.4506 7.44967 3.9181 8.08315 5.38937C8.18004 5.63276 8.20934 5.89763 8.16795 6.15618C8.12657 6.41473 8.01604 6.65741 7.84797 6.85875C7.58244 7.21759 7.29983 7.56511 7.03051 7.92396C6.40841 8.7493 6.37427 9.3329 6.97551 10.1771C8.21781 11.926 9.83566 13.3085 11.4876 14.6514C12.2472 15.2906 13.0776 15.8413 13.9628 16.2926C14.8523 16.7289 15.5351 16.7006 16.1344 15.9395C17.2174 14.5626 18.4484 14.2774 20.0548 14.946C21.0032 15.3426 22.0558 15.5126 23.0458 15.8205C24.0947 16.1529 24.5309 17.1822 24.0719 18.136C22.9226 20.5195 20.7243 21.8812 17.5816 21.8717Z" fill="#FCFDFC"/>
</svg>

<svg width="25" height="22" fill="none" xmlns="http://www.w3.org/2000/svg"><path d="M17.582 21.872c-2.087-.047-4.378-.894-6.476-2.24-3.768-2.418-7.017-5.368-9.149-9.36C.997 8.474.472 6.534.895 4.487c.38-1.804 1.597-3.073 3.048-4.103.74-.525 1.773-.207 2.179.63C6.82 2.45 7.45 3.917 8.083 5.388a1.452 1.452 0 01-.235 1.47c-.266.359-.548.706-.817 1.065-.623.825-.657 1.409-.055 2.253 1.242 1.749 2.86 3.132 4.512 4.474.76.64 1.59 1.19 2.475 1.642.89.436 1.572.408 2.171-.353 1.083-1.377 2.314-1.663 3.92-.994.95.397 2.002.567 2.992.874 1.049.333 1.485 1.362 1.026 2.316-1.15 2.384-3.348 3.745-6.49 3.736z" fill="#FCFDFC"/></svg>
